X: 8
T: The Five Mile Chase
R: reel
M: 4/4
L: 1/8
K: Gmaj
|: ~G3B d2BG | FADA FADA | ~G3B d2 (3Bcd |[1 egfa gedB :|[2 egfa g2 z2 ||
gd (3Bcd ed (3Bcd | gabg agef | gd (3Bcd ed (3Bcd |egfa g3 f |
eaag efge | dedc BG (3Bcd | egfd ed (3Bcd | egfa gedB |]


Tune 458	Setting 13336

